X: 1
T: BUTTER-MILK AND PRATEES -- JIG
C: Tom Doyle
B: Ryan's Mammoth Collection of Fiddle Tunes
R: jig
M: 6/8
L: 1/8
Z: Contributed 20000421152806 by John Chambers jchambers:casc.com
K: D
(uag) \
| vfed fga | fed AFD | FAd def | {g}fee eag |
| fed fga | fed AFD | FAd efg | (fd)d d :|
|: (uag) \
| vfdd fdd | fdd fga | e=cc ecc | e=cc e^fg |
| fdd fdd | fdd fg"1"a | "2"b"3"c'"4"d' "1"a"3"f"1"d | ("2"e"1"d)d d:|
